icons/Communication/chat-off-line.svg

<svg viewBox="0 0 24 24" xmlns="http://www.w3.org/2000/svg"><path d="M2.80777 1.39355L22.6068 21.1925L21.1925 22.6068L17.5846 18.9996L6.45516 19.0002L2.00016 22.5002V4.00016C2.00016 3.83085 2.04223 3.67138 2.11649 3.53162L1.39355 2.80777L2.80777 1.39355ZM3.99955 5.41355L4.00016 18.3855L5.76349 17.0002L15.5846 16.9996L3.99955 5.41355ZM21.0002 3.00016C21.5524 3.00016 22.0002 3.44787 22.0002 4.00016V17.7852L20.0002 15.7852V5.00016L9.21316 4.99916L7.21416 3.00016H21.0002Z"/></svg>

<svg xmlns="http://www.w3.org/2000/svg" viewBox="0 0 24 24">
    <g>
        <path fill="none" d="M0 0h24v24H0z"/>
        <path d="M2.808 1.393l19.799 19.8-1.415 1.414-3.608-3.608L6.455 19 2 22.5V4c0-.17.042-.329.116-.469l-.723-.723 1.415-1.415zm1.191 4.02L4 18.385 5.763 17h9.821L4 5.412zM21 3a1 1 0 0 1 1 1v13.785l-2-2V5L9.213 4.999 7.214 3H21z"/>
    </g>
</svg>
